svg/box.svg

<svg xmlns="http://www.w3.org/2000/svg" viewBox="0 0 64 48" enable-background="new 0 0 64 48"><style type="text/css">.st0{fill:#343434;}</style><title>box</title><desc>Created with Sketch.</desc><path class="st0" d="M64 4c0-2.2-1.8-4-4-4h-56c-2.2 0-4 1.8-4 4v40c0 2.2 1.8 4 4 4h56c2.2 0 4-1.8 4-4v-40zm-60 0h56v12h-56v-12zm36 16c-1.8 2.4-4.7 4-8 4s-6.2-1.6-8-4h16zm20 0v24h-56v-24h15.3c2.3 4.8 7.1 8 12.7 8s10.4-3.2 12.7-8h15.3z"/></svg>

<svg xmlns="http://www.w3.org/2000/svg" viewBox="0 0 64 48"><path d="M64 4c0-2.2-1.8-4-4-4H4C1.8 0 0 1.8 0 4v40c0 2.2 1.8 4 4 4h56c2.2 0 4-1.8 4-4V4zM4 4h56v12H4V4zm36 16c-1.8 2.4-4.7 4-8 4s-6.2-1.6-8-4h16zm20 0v24H4V20h15.3c2.3 4.8 7.1 8 12.7 8s10.4-3.2 12.7-8H60z" fill="#343434"/></svg>
